packages/foundations/assets/icons/functional/images/maps/navigation_to_right_14.svg

<svg width="14" height="14" viewBox="0 0 14 14" fill="none" xmlns="http://www.w3.org/2000/svg">
<g clip-path="url(#clip0_2213_5417)">
<path fill-rule="evenodd" clip-rule="evenodd" d="M7.06844 1.2923C7.25899 1.2923 7.44953 1.36368 7.56857 1.50644L10.3754 4.31044C10.5183 4.42946 10.5898 4.61985 10.5898 4.81025C10.5898 4.97682 10.5183 5.16722 10.3754 5.31005L7.49677 8.18585C7.37773 8.30479 7.18719 8.39999 6.99665 8.39999C6.59172 8.39999 6.28207 8.06683 6.28207 7.68605C6.28207 7.49565 6.35351 7.30526 6.49645 7.16243L8.13295 5.52748L5.56412 5.52819C5.16761 5.52819 4.84618 5.84963 4.84618 6.24614V11.9897C4.84618 12.3862 4.52474 12.7077 4.12823 12.7077C3.73172 12.7077 3.41028 12.3862 3.41028 11.9897V6.24614C3.41028 5.05661 4.37459 4.0923 5.56412 4.0923L8.13151 4.09158L6.56825 2.52986C6.42656 2.37726 6.3551 2.20272 6.35387 2.00624C6.35387 1.62545 6.66352 1.2923 7.06844 1.2923Z" fill="#1A1C1F"/>
</g>
<defs>
<clipPath id="clip0_2213_5417">
<rect width="14" height="14" fill="white"/>
</clipPath>
</defs>
</svg>

<svg xmlns="http://www.w3.org/2000/svg" width="14" height="14" fill="none"><g clip-path="url(#a)"><path fill="#1A1C1F" fill-rule="evenodd" d="M7.068 1.292c.191 0 .382.072.5.214l2.807 2.804c.143.12.215.31.215.5a.73.73 0 0 1-.215.5L7.497 8.186a.74.74 0 0 1-.5.214.716.716 0 0 1-.715-.714c0-.19.072-.38.214-.524l1.637-1.635-2.569.001a.72.72 0 0 0-.718.718v5.744a.718.718 0 0 1-1.436 0V6.246c0-1.19.965-2.154 2.154-2.154h2.568L6.568 2.53a.76.76 0 0 1-.214-.524c0-.38.31-.714.714-.714" clip-rule="evenodd"/></g><defs><clipPath id="a"><path fill="#fff" d="M0 0h14v14H0z"/></clipPath></defs></svg>
